X: 2098
T: The Drops Of Brandy
B: nick
B: to learn
M:9/8
Q: 3/8=100
K:Gmajor
V:1 
|:"G"ded BGB BGB|"G"ded BGB "D7"cBA|
 "G"ded BGB BGB|"C"cBc A2B "D7"cBA:|
 |:"G"GBd gdB gdB|"G"GBd gdB "D7"cBA|
 [1 "G"GBd gdB gdB|"C"cBc A2B "D7"cBA:|
 [2 "G"GBd gba gdB|"C"cBc A2B "D7"cBA||
% abcbook-tune_id 634560c4c744d6ed9047cf66


% abcbook-boost 0
% abcbook-tablature 
% abcbook-transpose 
% abcbook-lastupdated 1666005565168
% abcbook-soundfonts 
% abcbook-repeats 3


